public/square/ksana.svg

<svg fill="none" height="512" viewBox="0 0 512 512" width="512" xmlns="http://www.w3.org/2000/svg"><rect fill="#ed8936" height="512" rx="29" width="512"/><g fill="#fff"><path d="m78.29 256v-3.06h7.82l-19.21-39.44-3.23.85v38.59h7.82v3.06h-48.79v-3.06h9.35v-121.38h-10.03v-3.06h41.65v82.45l2.72-1.02 38.25-31.79h-15.98v-3.06h33.49v3.06h-11.9l-20.23 17.17 29.41 57.63h6.12v3.06zm53.74 1.7v-30.43h2.04c2.947 9.86 6.913 16.773 11.9 20.74s11.22 5.95 18.7 5.95c11.56 0 17.34-3.683 17.34-11.05 0-3.173-1.417-5.553-4.25-7.14-4.42-2.493-10.087-4.42-17-5.78-7.707-2.04-14.167-4.76-19.38-8.16-6.233-4.08-9.35-10.54-9.35-19.38s2.72-15.867 8.16-21.08c5.44-5.327 12.693-7.99 21.76-7.99 5.553 0 11.277 1.303 17.17 3.91 2.153.907 3.797 1.36 4.93 1.36s2.097-.397 2.89-1.19 1.757-2.267 2.89-4.42h1.87v26.01h-2.04c-5.78-14.733-14.733-22.1-26.86-22.1-5.327 0-9.293.963-11.9 2.89-2.607 1.813-3.91 4.137-3.91 6.97 0 1.7.397 3.06 1.19 4.08.793.907 1.417 1.587 1.87 2.04s1.19.963 2.21 1.53c1.02.453 1.87.85 2.55 1.19.68.227 1.7.567 3.06 1.02 1.473.453 2.55.737 3.23.85 7.707 1.927 13.26 3.627 16.66 5.1 3.4 1.36 6.63 3.06 9.69 5.1 6.233 4.307 9.35 11.277 9.35 20.91 0 9.52-2.833 16.773-8.5 21.76-5.667 4.873-13.43 7.31-23.29 7.31-7.027 0-13.827-1.643-20.4-4.93-1.36-.907-2.437-1.36-3.23-1.36-2.493 0-4.93 2.097-7.31 6.29zm110.601-41.65h4.93v-13.09c0-10.767-.623-17.963-1.87-21.59-1.133-3.74-3.4-5.61-6.8-5.61-2.04 0-3.91.567-5.61 1.7-1.587 1.02-2.38 2.493-2.38 4.42 0 1.813.34 3.683 1.02 5.61h4.25c.907 2.38 1.36 5.27 1.36 8.67 0 3.287-1.417 6.177-4.25 8.67-2.833 2.38-6.403 3.57-10.71 3.57-9.747 0-14.62-4.703-14.62-14.11 0-13.94 11.843-20.91 35.53-20.91 13.487 0 22.78 2.323 27.88 6.97 5.213 4.533 7.82 12.92 7.82 25.16v34.51c0 5.893 1.643 8.84 4.93 8.84 3.853 0 6.12-5.837 6.8-17.51l2.55.17c-.453 9.973-2.323 16.83-5.61 20.57s-8.67 5.61-16.15 5.61c-13.6 0-21.42-4.193-23.46-12.58-1.473 4.307-3.683 7.48-6.63 9.52s-7.253 3.06-12.92 3.06c-16.773 0-25.16-6.857-25.16-20.57 0-8.047 3.173-13.543 9.52-16.49 6.46-3.06 16.32-4.59 29.58-4.59zm-6.8 20.91c0 5.893.283 9.69.85 11.39.68 1.7 1.87 2.55 3.57 2.55 1.813 0 3.457-1.417 4.93-4.25 1.587-2.947 2.38-6.97 2.38-12.07v-15.81h-1.19c-7.027 0-10.54 5.157-10.54 15.47zm59.641-61.88h40.97v15.64c1.813-5.213 4.59-9.407 8.33-12.58s9.406-4.76 17-4.76c17.566 0 26.35 9.463 26.35 28.39v51.17h9.52v3.06h-48.11v-3.06h6.97v-55.25c0-6.8-.454-11.163-1.36-13.09-.907-2.04-2.55-3.06-4.93-3.06-3.627 0-6.857 2.38-9.69 7.14-2.72 4.76-4.08 10.54-4.08 17.34v46.92h7.31v3.06h-48.28v-3.06h9.35v-74.8h-9.35zm145.216 40.97h4.93v-13.09c0-10.767-.624-17.963-1.87-21.59-1.134-3.74-3.4-5.61-6.8-5.61-2.04 0-3.91.567-5.61 1.7-1.587 1.02-2.38 2.493-2.38 4.42 0 1.813.34 3.683 1.02 5.61h4.25c.906 2.38 1.36 5.27 1.36 8.67 0 3.287-1.417 6.177-4.25 8.67-2.834 2.38-6.404 3.57-10.711 3.57-9.746 0-14.619-4.703-14.619-14.11 0-13.94 11.843-20.91 35.53-20.91 13.486 0 22.78 2.323 27.88 6.97 5.213 4.533 7.82 12.92 7.82 25.16v34.51c0 5.893 1.643 8.84 4.93 8.84 3.853 0 6.12-5.837 6.8-17.51l2.55.17c-.454 9.973-2.324 16.83-5.61 20.57-3.287 3.74-8.67 5.61-16.15 5.61-13.6 0-21.42-4.193-23.46-12.58-1.474 4.307-3.684 7.48-6.63 9.52-2.947 2.04-7.254 3.06-12.92 3.06-16.774 0-25.16-6.857-25.16-20.57 0-8.047 3.173-13.543 9.52-16.49 6.46-3.06 16.32-4.59 29.58-4.59zm-6.8 20.91c0 5.893.283 9.69.85 11.39.68 1.7 1.87 2.55 3.57 2.55 1.813 0 3.456-1.417 4.93-4.25 1.586-2.947 2.38-6.97 2.38-12.07v-15.81h-1.19c-7.027 0-10.54 5.157-10.54 15.47z"/><path d="m385.1 337c-2.867 0-5.033-.833-6.5-2.5-1.4-1.733-2.1-3.8-2.1-6.2 0-2.467.733-4.533 2.2-6.2 1.533-1.667 3.667-2.5 6.4-2.5s4.9.7 6.5 2.1 2.4 3.5 2.4 6.3-.767 5-2.3 6.6c-1.467 1.6-3.667 2.4-6.6 2.4zm29.065-55.5c-3.533 0-6.067-.9-7.6-2.7-1.467-1.8-2.2-4.033-2.2-6.7s.8-4.867 2.4-6.6c1.667-1.733 4.167-2.6 7.5-2.6s5.867.8 7.6 2.4c1.733 1.533 2.6 3.767 2.6 6.7 0 2.867-.833 5.167-2.5 6.9s-4.267 2.6-7.8 2.6zm-15.1 6.9h24.5v45.8h5.6v1.8h-29.7v-1.8h5.5v-44h-5.9zm32.338 0h24.1v9.2c1.067-3.067 2.7-5.533 4.9-7.4s5.533-2.8 10-2.8c10.333 0 15.5 5.567 15.5 16.7v30.1h5.6v1.8h-28.3v-1.8h4.1v-32.5c0-4-.267-6.567-.8-7.7-.533-1.2-1.5-1.8-2.9-1.8-2.133 0-4.033 1.4-5.7 4.2-1.6 2.8-2.4 6.2-2.4 10.2v27.6h4.3v1.8h-28.4v-1.8h5.5v-44h-5.5z"/></g></svg>

<svg width="512" height="512" viewBox="0 0 512 512" fill="none" xmlns="http://www.w3.org/2000/svg">
<rect width="512" height="512" rx="29" fill="#ED8936"/>
<path d="M78.29 256V252.94H86.11L66.9 213.5L63.67 214.35V252.94H71.49V256H22.7V252.94H32.05V131.56H22.02V128.5H63.67V210.95L66.39 209.93L104.64 178.14H88.66V175.08H122.15V178.14H110.25L90.02 195.31L119.43 252.94H125.55V256H78.29ZM132.03 257.7V227.27H134.07C137.017 237.13 140.983 244.043 145.97 248.01C150.957 251.977 157.19 253.96 164.67 253.96C176.23 253.96 182.01 250.277 182.01 242.91C182.01 239.737 180.593 237.357 177.76 235.77C173.34 233.277 167.673 231.35 160.76 229.99C153.053 227.95 146.593 225.23 141.38 221.83C135.147 217.75 132.03 211.29 132.03 202.45C132.03 193.61 134.75 186.583 140.19 181.37C145.63 176.043 152.883 173.38 161.95 173.38C167.503 173.38 173.227 174.683 179.12 177.29C181.273 178.197 182.917 178.65 184.05 178.65C185.183 178.65 186.147 178.253 186.94 177.46C187.733 176.667 188.697 175.193 189.83 173.04H191.7V199.05H189.66C183.88 184.317 174.927 176.95 162.8 176.95C157.473 176.95 153.507 177.913 150.9 179.84C148.293 181.653 146.99 183.977 146.99 186.81C146.99 188.51 147.387 189.87 148.18 190.89C148.973 191.797 149.597 192.477 150.05 192.93C150.503 193.383 151.24 193.893 152.26 194.46C153.28 194.913 154.13 195.31 154.81 195.65C155.49 195.877 156.51 196.217 157.87 196.67C159.343 197.123 160.42 197.407 161.1 197.52C168.807 199.447 174.36 201.147 177.76 202.62C181.16 203.98 184.39 205.68 187.45 207.72C193.683 212.027 196.8 218.997 196.8 228.63C196.8 238.15 193.967 245.403 188.3 250.39C182.633 255.263 174.87 257.7 165.01 257.7C157.983 257.7 151.183 256.057 144.61 252.77C143.25 251.863 142.173 251.41 141.38 251.41C138.887 251.41 136.45 253.507 134.07 257.7H132.03ZM242.631 216.05H247.561V202.96C247.561 192.193 246.938 184.997 245.691 181.37C244.558 177.63 242.291 175.76 238.891 175.76C236.851 175.76 234.981 176.327 233.281 177.46C231.694 178.48 230.901 179.953 230.901 181.88C230.901 183.693 231.241 185.563 231.921 187.49H236.171C237.078 189.87 237.531 192.76 237.531 196.16C237.531 199.447 236.114 202.337 233.281 204.83C230.448 207.21 226.878 208.4 222.571 208.4C212.824 208.4 207.951 203.697 207.951 194.29C207.951 180.35 219.794 173.38 243.481 173.38C256.968 173.38 266.261 175.703 271.361 180.35C276.574 184.883 279.181 193.27 279.181 205.51V240.02C279.181 245.913 280.824 248.86 284.111 248.86C287.964 248.86 290.231 243.023 290.911 231.35L293.461 231.52C293.008 241.493 291.138 248.35 287.851 252.09C284.564 255.83 279.181 257.7 271.701 257.7C258.101 257.7 250.281 253.507 248.241 245.12C246.768 249.427 244.558 252.6 241.611 254.64C238.664 256.68 234.358 257.7 228.691 257.7C211.918 257.7 203.531 250.843 203.531 237.13C203.531 229.083 206.704 223.587 213.051 220.64C219.511 217.58 229.371 216.05 242.631 216.05ZM235.831 236.96C235.831 242.853 236.114 246.65 236.681 248.35C237.361 250.05 238.551 250.9 240.251 250.9C242.064 250.9 243.708 249.483 245.181 246.65C246.768 243.703 247.561 239.68 247.561 234.58V218.77H246.371C239.344 218.77 235.831 223.927 235.831 234.24V236.96ZM295.472 175.08H336.442V190.72C338.255 185.507 341.032 181.313 344.772 178.14C348.512 174.967 354.178 173.38 361.772 173.38C379.338 173.38 388.122 182.843 388.122 201.77V252.94H397.642V256H349.532V252.94H356.502V197.69C356.502 190.89 356.048 186.527 355.142 184.6C354.235 182.56 352.592 181.54 350.212 181.54C346.585 181.54 343.355 183.92 340.522 188.68C337.802 193.44 336.442 199.22 336.442 206.02V252.94H343.752V256H295.472V252.94H304.822V178.14H295.472V175.08ZM440.688 216.05H445.618V202.96C445.618 192.193 444.994 184.997 443.748 181.37C442.614 177.63 440.348 175.76 436.948 175.76C434.908 175.76 433.038 176.327 431.338 177.46C429.751 178.48 428.958 179.953 428.958 181.88C428.958 183.693 429.298 185.563 429.978 187.49H434.228C435.134 189.87 435.588 192.76 435.588 196.16C435.588 199.447 434.171 202.337 431.338 204.83C428.504 207.21 424.934 208.4 420.627 208.4C410.881 208.4 406.008 203.697 406.008 194.29C406.008 180.35 417.851 173.38 441.538 173.38C455.024 173.38 464.318 175.703 469.418 180.35C474.631 184.883 477.238 193.27 477.238 205.51V240.02C477.238 245.913 478.881 248.86 482.168 248.86C486.021 248.86 488.288 243.023 488.968 231.35L491.518 231.52C491.064 241.493 489.194 248.35 485.908 252.09C482.621 255.83 477.238 257.7 469.758 257.7C456.158 257.7 448.338 253.507 446.298 245.12C444.824 249.427 442.614 252.6 439.668 254.64C436.721 256.68 432.414 257.7 426.748 257.7C409.974 257.7 401.588 250.843 401.588 237.13C401.588 229.083 404.761 223.587 411.108 220.64C417.568 217.58 427.428 216.05 440.688 216.05ZM433.888 236.96C433.888 242.853 434.171 246.65 434.738 248.35C435.418 250.05 436.608 250.9 438.308 250.9C440.121 250.9 441.764 249.483 443.238 246.65C444.824 243.703 445.618 239.68 445.618 234.58V218.77H444.428C437.401 218.77 433.888 223.927 433.888 234.24V236.96Z" fill="white"/>
<path d="M385.1 337C382.233 337 380.067 336.167 378.6 334.5C377.2 332.767 376.5 330.7 376.5 328.3C376.5 325.833 377.233 323.767 378.7 322.1C380.233 320.433 382.367 319.6 385.1 319.6C387.833 319.6 390 320.3 391.6 321.7C393.2 323.1 394 325.2 394 328C394 330.8 393.233 333 391.7 334.6C390.233 336.2 388.033 337 385.1 337ZM414.165 281.5C410.632 281.5 408.098 280.6 406.565 278.8C405.098 277 404.365 274.767 404.365 272.1C404.365 269.433 405.165 267.233 406.765 265.5C408.432 263.767 410.932 262.9 414.265 262.9C417.598 262.9 420.132 263.7 421.865 265.3C423.598 266.833 424.465 269.067 424.465 272C424.465 274.867 423.632 277.167 421.965 278.9C420.298 280.633 417.698 281.5 414.165 281.5ZM399.065 288.4H423.565V334.2H429.165V336H399.465V334.2H404.965V290.2H399.065V288.4ZM431.403 288.4H455.503V297.6C456.57 294.533 458.203 292.067 460.403 290.2C462.603 288.333 465.936 287.4 470.403 287.4C480.736 287.4 485.903 292.967 485.903 304.1V334.2H491.503V336H463.203V334.2H467.303V301.7C467.303 297.7 467.036 295.133 466.503 294C465.97 292.8 465.003 292.2 463.603 292.2C461.47 292.2 459.57 293.6 457.903 296.4C456.303 299.2 455.503 302.6 455.503 306.6V334.2H459.803V336H431.403V334.2H436.903V290.2H431.403V288.4Z" fill="white"/>
</svg>
